X:111
T:Cincinatti Hornpipe
M:2/4
L:1/16
K:D
D2|:DAFA DAFA|dAfA eAfA|gAfA edcd|edcB AGFE|DAFA DAFA|
DAfA eAfA|gAfA edcB|cdeg fdd2::eAAA fAAA|gAAA fAAA|eAfA gAfA|
edcB AGFE|Dddd ceee|dfff eggg|fgaf bgec|d2d2d2z2:|
